X:1
T:A minor Daniel Read, 1807
T:Isaac Watts, 1709 (Psalm 80)  88. 88. (L. M.)
T:Madison
T:No copyright. Transcribed from The Columbian Harmonist, 1807.
T:No Copyright.  Transcribed from The Columbian Harmonist, 1807.
T:No Copyright.  Transcribed from The Columbian Harmonist, 1807.
Z:No Copyright.  Transcribed from The Columbian Harmonist, 1807.
%%score [ 1 2 3 4 ]
L:1/8
M:4/4
K:C
V:1 treble nm="Treble" snm="Tr."
V:2 treble nm="Counter" snm="C."
V:3 treble-8 nm="Tenor" snm="T."
V:4 bass nm="Bass" snm="B."
V:1
 A4 | c2 c2 B2 A2 | ^G6 G2 | A4 A4 | B2 B2 B2 B2 | (c3 d ed) c2 | B4 e4 | c2 c2 d2 d2 | c6 d2 | %9
w: |||||||||
 e6 c2 | e2 e2 c2 A2 | A6 ^G2 | A8 |: z8 | z8 | z8 | z4 z2 c2 | e2 e2 e2 (cB) | G2 G2 G2 c2 | %19
w: |||||||Thy|church is in the *|de- sert now, Shine|
 B3 A B2 AG | E2 E2 E4 | B4 c2 c2 | c2 e2 dc BA | G2 B2 c3 d | c2 A2 A2 ^G2 | A8 :| %26
w: from on high and *|guide us through.||||||
V:2
 E4 | E2 E2 E2 E2 | E6 E2 | E4 E4 | G2 G2 G2 G2 | E6 E2 | E4 E4 | E2 E2 ^F2 F2 | G6 G2 | G6 G2 | %10
w: 1.~Great|Shep- herd of Thine|Is- ra-|el, Who|did be- tween the|che- rubs|dwell, And|led the tribes, Thy|cho- sen|sheep, Safe|
 G2 G2 G2 F2 | E6 E2 | E8 |: z8 | z8 | z4 z2 A2 | E2 E2 E2 EF | G2 G2 G2 c2 | B3 A B2 AG | %19
w: through the de- sert|and the|deep,|||Thy|church is in the *|de- sert now, Shine|from on high and *|
 E2 E2 E4- | E8 | E4 E2 E2 | E2 E2 G2 G2 | G2 G2 A3 G | A2 F2 E2 E2 | E8 :| %26
w: guide us through,~|_|Turn us to|Thee, Thy love re-|store; We shall be|saved, and sigh no|more.|
V:3
 A4 | A2 A2 ^G2 AG | E6 cB | A4 c4 | d2 d2 d2 ed | (c3 B A2) A2 | B4 G4 | E2 A2 A2 A2 | G6 G2 | %9
w: |||||||||
 c6 G2 | c2 c2 e2 c2 | A6 E2 | A8 |: z8 | z4 z2 c2 | e2 e2 e2 dB | G2 G2 G2 c2 | B3 A B2 (AG) | %18
w: |||||Thy|church is in the *|de- sert now, Shine|from on high and *|
 E2 E2 E4- | E8- | E8 | E4 A2 c2 | e2 c2 d2 d2 | d2 g2 e3 d | e2 c2 B2 B2 | A8 :| %26
w: guide us through~|_|||||||
V:4
 A,4 | A,2 A,2 E,2 E,2 | E,6 E,2 | A,,4 A,4 | G,2 G,2 G,2 E,2 | A,6 A,,2 | E,4 E,4 | %7
w: |||||||
 E,2 E,2 D,2 D,2 | G,6 G,2 | C,6 C,2 | C,2 C,2 C,2 D,2 | E,6 E,2 | A,,8 |: z4 E,4 | %14
w: ||||||Thy|
 A,2 A,2 A,2 G,E, | C,2 C,2 C,2 F,2 | E,3 D, E,2 A,2 | E,2 E,2 E,4- | E,8- | E,8- | E,8 | %21
w: church is in the *|de- sert now, Shine|from on high and|guide us through~|_|||
 E,4 A,,2 A,,2 | E,2 A,2 G,2 G,2 | G,2 E,2 A,3 B, | A,2 D,2 E,2 E,2 | A,,8 :| %26
w: |||||

